svg/volcano.svg

<svg xmlns="http://www.w3.org/2000/svg" viewBox="0 0 24 24"><path d="M18 8h-7l-2 5H6l-4 9h20zm-5-7h2v4h-2zm3.12 4.47 2.83-2.83 1.41 1.41-2.82 2.83zM7.64 4.05l1.41-1.41 2.83 2.82-1.41 1.42z"/></svg>

<svg xmlns="http://www.w3.org/2000/svg" id="mdi-volcano" viewBox="0 0 24 24"><path d="M18 8H11L9 13H6L2 22H22L18 8M13 1H15V5H13V1M16.12 5.47L18.95 2.64L20.36 4.05L17.54 6.88L16.12 5.47M7.64 4.05L9.05 2.64L11.88 5.46L10.47 6.88L7.64 4.05Z" /></svg>
